Adwaita++-Dark/actions/22/edit-select-lasso.svg

<svg height="22" viewBox="0 0 22 22" width="22" xmlns="http://www.w3.org/2000/svg">
  <path d="m9.125-.05859375v.12109375l.6699219 1.1054688a7 5 0 0 1 2.7421871 1.0175781l.8125-.6445313a8 6 0 0 0 -4.224609-1.59960935zm-1.2070312.05859375a8 6 0 0 0 -2.4179688.30273438l.8378906.84179682a7 5 0 0 1 1.6679688-.14843745 7 5 0 0 1 .5273437.01953125zm-3.4941407.63867188a8 6 0 0 0 -1.859375.96875002l.9726563.546875a7 5 0 0 1 1.6640625-.7324219zm9.7402339 1.53125002-.789062.6269531a7 5 0 0 1 .794922.8378906l1-.2929687a8 6 0 0 0 -1.00586-1.171875zm-12.4394526.1113281a8 6 0 0 0 -1.03320315 1.3046875l.93164065.3671875a7 5 0 0 1 1.0117187-1.1601562zm13.9296876 1.9609375-.966797.2832031a7 5 0 0 1 .296875 1.0898438l1.005859.1367187a8 6 0 0 0 -.335937-1.5097656zm-15.38671888.25a8 6 0 0 0 -.25781249 1.4257813l1.00390627-.0449219a7 5 0 0 1 .1816406-1.0136719zm14.67773388 2.1269531a7 5 0 0 1 -.58789 1.4667969l.990234.2753906a8 6 0 0 0 .583985-1.6074219zm-13.8300776.25-1.0058594.0449219a8 6 0 0 0 .5625 1.4726563l.9101562-.4179688a7 5 0 0 1 -.4667968-1.0996094zm1.0878906 1.9121094v.0039062l-.9394531.4296876a8 6 0 0 0 1.7714843 1.4667972c.63604 2.3756-1.8404968 4.5014-1.0292968 5.3125 1.1347.1082 1.8092312-1.566854 2.0820312-3.189453.10207-.1389.4709982-.666875.7675782-1.296876a8 6 0 0 0 3.140625.488282l-1.0664063-1.066406a7 5 0 0 1 -1.7871094-.384766c.00792-.444-.2657356-.723622-1.1347656-.544922-.00105 0-.000901.000234-.0019531-.0097656-.079193 0-.1576282-.0163438-.2363282-.0273438a7 5 0 0 1 -1.5664062-1.1816406zm11.460937.1503906a7 5 0 0 1 -1.673828 1.1679684l.976563.595703a8 6 0 0 0 1.777344-1.4628901zm-2.833984 1.6328124a7 5 0 0 1 -2.4296874.421875l.921875.921875a8 6 0 0 0 2.5937504-.681641z" fill="#e6ddff" transform="translate(3 3)"/>
</svg>

<svg xmlns="http://www.w3.org/2000/svg" width="22" height="22" viewBox="0 0 22 22">
 <defs>
  <style id="current-color-scheme" type="text/css">
   .ColorScheme-Text { color:#E6DDFF; } .ColorScheme-Highlight { color:#4285f4; }
  </style>
 </defs>
 <path style="fill:currentColor" class="ColorScheme-Text" d="M 9.125 -0.05859375 L 9.125 0.0625 L 9.7949219 1.1679688 A 7 5 0 0 1 12.537109 2.1855469 L 13.349609 1.5410156 A 8 6 0 0 0 9.125 -0.05859375 z M 7.9179688 0 A 8 6 0 0 0 5.5 0.30273438 L 6.3378906 1.1445312 A 7 5 0 0 1 8.0058594 0.99609375 A 7 5 0 0 1 8.5332031 1.015625 L 7.9179688 0 z M 4.4238281 0.63867188 A 8 6 0 0 0 2.5644531 1.6074219 L 3.5371094 2.1542969 A 7 5 0 0 1 5.2011719 1.421875 L 4.4238281 0.63867188 z M 14.164062 2.1699219 L 13.375 2.796875 A 7 5 0 0 1 14.169922 3.6347656 L 15.169922 3.3417969 A 8 6 0 0 0 14.164062 2.1699219 z M 1.7246094 2.28125 A 8 6 0 0 0 0.69140625 3.5859375 L 1.6230469 3.953125 A 7 5 0 0 1 2.6347656 2.7929688 L 1.7246094 2.28125 z M 15.654297 4.2421875 L 14.6875 4.5253906 A 7 5 0 0 1 14.984375 5.6152344 L 15.990234 5.7519531 A 8 6 0 0 0 15.654297 4.2421875 z M 0.26757812 4.4921875 A 8 6 0 0 0 0.009765625 5.9179688 L 1.0136719 5.8730469 A 7 5 0 0 1 1.1953125 4.859375 L 0.26757812 4.4921875 z M 14.945312 6.6191406 A 7 5 0 0 1 14.357422 8.0859375 L 15.347656 8.3613281 A 8 6 0 0 0 15.931641 6.7539062 L 14.945312 6.6191406 z M 1.1152344 6.8691406 L 0.109375 6.9140625 A 8 6 0 0 0 0.671875 8.3867188 L 1.5820312 7.96875 A 7 5 0 0 1 1.1152344 6.8691406 z M 2.203125 8.78125 L 2.203125 8.7851562 L 1.2636719 9.2148438 A 8 6 0 0 0 3.0351562 10.681641 C 3.6711962 13.057241 1.1946594 15.183041 2.0058594 15.994141 C 3.1405594 16.102341 3.8150906 14.427287 4.0878906 12.804688 C 4.1899606 12.665788 4.5588888 12.137813 4.8554688 11.507812 A 8 6 0 0 0 7.9960938 11.996094 L 6.9296875 10.929688 A 7 5 0 0 1 5.1425781 10.544922 C 5.1504981 10.100922 4.8768425 9.8213 4.0078125 10 C 4.0067625 10 4.0069115 10.000234 4.0058594 9.9902344 C 3.9266664 9.9902344 3.8482312 9.9738906 3.7695312 9.9628906 A 7 5 0 0 1 2.203125 8.78125 z M 13.664062 8.9316406 A 7 5 0 0 1 11.990234 10.099609 L 12.966797 10.695312 A 8 6 0 0 0 14.744141 9.2324219 L 13.664062 8.9316406 z M 10.830078 10.564453 A 7 5 0 0 1 8.4003906 10.986328 L 9.3222656 11.908203 A 8 6 0 0 0 11.916016 11.226562 L 10.830078 10.564453 z" transform="translate(3 3)"/>
</svg>
